Adwaita++/apps/scalable/bug.svg

<svg height="128" width="128" xmlns="http://www.w3.org/2000/svg" xmlns:xlink="http://www.w3.org/1999/xlink">
  <linearGradient id="e" gradientTransform="matrix(1.0015 0 0 .99993 72.09 56.015)" gradientUnits="userSpaceOnUse" x1="43.844" x2="-60" y1="234" y2="234">
    <stop offset="0" stop-color="#d5d3cf"/>
    <stop offset=".038" stop-color="#e3e2df"/>
    <stop offset=".077" stop-color="#c0bfbc"/>
    <stop offset=".923" stop-color="#c0bfbc"/>
    <stop offset=".962" stop-color="#e3e2df"/>
    <stop offset="1" stop-color="#d5d3cf"/>
  </linearGradient>
  <g transform="translate(0 -172)">
    <rect fill="url(#e)" height="48" rx="8" width="104" x="12" y="240"/>
    <path d="m20 10c-4.432 0-8 3.568-8 8v42 42c0 4.432 3.568 8 8 8h44 44c4.432 0 8-3.568 8-8v-42-42c0-4.432-3.568-8-8-8z" fill="#ea253e" transform="translate(0 172)"/>
    <path d="m159.13404 123.36543q0 8.77054-.40793 16.52125-.20397 7.54674-.81586 14.68555-.6119 7.13881-1.42777 13.86969-.61189 6.73088-1.42776 13.46176h-6.11898q-1.83569-13.66573-3.05949-27.33145-1.01983-13.66572-1.01983-31.2068v-39.365436h14.27762zm4.07932 93.21247q0 4.69121-3.05949 7.95467-2.85552 3.26346-8.15864 3.26346-5.30311 0-8.3626-3.26346-2.85553-3.26346-2.85553-7.95467 0-4.69122 2.85553-7.95468 3.05949-3.26345 8.3626-3.26345 5.30312 0 8.15864 3.26345 3.05949 3.26346 3.05949 7.95468z" fill="#fff" transform="matrix(.41427661416 0 0 .41427661416 1.0319305356 167.41510280667)"/>
  </g>
</svg>

<svg xmlns="http://www.w3.org/2000/svg" xmlns:xlink="http://www.w3.org/1999/xlink" width="128" height="128" version="1.0">
 <defs>
  <linearGradient id="a">
   <stop id="stop2" offset="0" stop-color="#68676b"/>
   <stop id="stop4" offset=".8" stop-color="#424048"/>
   <stop id="stop6" offset="1" stop-color="#241f31"/>
  </linearGradient>
  <radialGradient id="d" cx="279.422" cy="446.483" r="224" fx="279.422" fy="446.483" gradientTransform="matrix(1.34416 .0006 -.00062 1.38763 -121.22 -718.103)" gradientUnits="userSpaceOnUse" xlink:href="#a"/>
  <linearGradient id="e" x1="43.844" x2="-60" y1="234" y2="234" gradientTransform="matrix(1.0015 0 0 .99993 72.09 56.015)" gradientUnits="userSpaceOnUse" xlink:href="#b"/>
  <linearGradient id="b">
   <stop id="stop11" offset="0" stop-color="#d5d3cf"/>
   <stop id="stop13" offset=".038" stop-color="#e3e2df"/>
   <stop id="stop15" offset=".077" stop-color="#c0bfbc"/>
   <stop id="stop17" offset=".923" stop-color="#c0bfbc"/>
   <stop id="stop19" offset=".962" stop-color="#e3e2df"/>
   <stop id="stop21" offset="1" stop-color="#d5d3cf"/>
  </linearGradient>
  <filter id="filter4569" width="1.023" height="1.025" x="-.01" y="-.01" style="color-interpolation-filters:sRGB">
   <feGaussianBlur id="feGaussianBlur22" stdDeviation="1.16"/>
  </filter>
  <filter id="filter938" width="1.046" height="1.05" x="-.02" y="-.03" style="color-interpolation-filters:sRGB">
   <feGaussianBlur id="feGaussianBlur19" stdDeviation="2.32"/>
  </filter>
  <linearGradient id="linearGradient878" x1="32" x2="272" y1="156" y2="156" gradientTransform="matrix(0,0.26458333,-0.26458333,0,74.498196,223.03096)" gradientUnits="userSpaceOnUse">
   <stop style="stop-color:#da1636" id="stop14" offset="0"/>
   <stop style="stop-color:#f22c42" id="stop16" offset="1"/>
  </linearGradient>
  <linearGradient id="linearGradient1108" x1="296" x2="296" y1="-212" y2="236" gradientUnits="userSpaceOnUse">
   <stop style="stop-color:#ffffff" id="stop2-3" offset="0"/>
   <stop style="stop-color:#ffffff;stop-opacity:.09803922" id="stop4-6" offset=".125"/>
   <stop style="stop-color:#000000;stop-opacity:.09803922" id="stop6-7" offset=".925"/>
   <stop style="stop-color:#000000;stop-opacity:.49803922" id="stop8" offset="1"/>
  </linearGradient>
  <clipPath id="clipPath1082-3-367">
   <path style="fill:#8c59d9" d="M 361.9375,-212 C 507.2348,-212 528,-191.28677 528,-46.125 V 70.125 C 528,215.28618 507.2348,236 361.9375,236 H 214.0625 C 68.7652,236 48,215.28618 48,70.125 V -46.125 C 48,-191.28677 68.7652,-212 214.0625,-212 Z"/>
  </clipPath>
 </defs>
 <g transform="translate(0 -172)">
  <rect fill="url(#e)" width="104" height="48" x="12" y="240" rx="8" ry="8"/>
  <path style="fill:#ea253e" d="M 20 10 C 15.568 10 12 13.568 12 18 L 12 60 L 12 102 C 12 106.432 15.568 110 20 110 L 64 110 L 108 110 C 112.432 110 116 106.432 116 102 L 116 60 L 116 18 C 116 13.568 112.432 10 108 10 L 20 10 z" transform="translate(0,172)"/>
  <g transform="matrix(1.5657699,0,0,1.5657699,-100.35398,-180.04845)">
   <g style="fill:#ffffff;enable-background:new" transform="matrix(0.26458333,0,0,0.26458333,64.751475,221.91227)">
    <path style="fill:#ffffff" d="m 159.13404,123.36543 q 0,8.77054 -0.40793,16.52125 -0.20397,7.54674 -0.81586,14.68555 -0.6119,7.13881 -1.42777,13.86969 -0.61189,6.73088 -1.42776,13.46176 h -6.11898 q -1.83569,-13.66573 -3.05949,-27.33145 -1.01983,-13.66572 -1.01983,-31.2068 V 83.999994 h 14.27762 z m 4.07932,93.21247 q 0,4.69121 -3.05949,7.95467 -2.85552,3.26346 -8.15864,3.26346 -5.30311,0 -8.3626,-3.26346 -2.85553,-3.26346 -2.85553,-7.95467 0,-4.69122 2.85553,-7.95468 3.05949,-3.26345 8.3626,-3.26345 5.30312,0 8.15864,3.26345 3.05949,3.26346 3.05949,7.95468 z"/>
   </g>
  </g>
 </g>
</svg>
